X: 1
T: Paddy Killoran's
M: 4/4
L: 1/8
R: reel
K: Dmaj
dcdA BdAD | E2 (3efg fdec | dcdA (3Bcd AF | GBAG FDD2 |
~d3A BdAD | E2 eg fdec | dfed cdec | dBAG FDD2 :||
fd (3ddd (3fga fa | ~g3a be (3eee | fd (3ddd fgaf | gbag fdd2 |
fd (3ddd (3fga fa | ~g3a be (3eee | (3gag fa gbag | (3fga  eg fdd2 :||
